X:127
T: Pipers Maggott
N: O'Farrell's Pocket Companion v.2 (Sky ed. p.70)
D: O'Sullivan Meets O'Farrell track 5b
N: "Irish"
M: 9/8
L: 1/8
R: slip jig
Q: 320
K: D
A|FEF DED FED|FAF dAF B2d|FEF DED FED|EFE BGE G2 :|
B|F/G/AF dAF dAF|FAF dAF B2d|F/G/AF dAF dAF|EFE BGE G2 :|
